X:251
T:Oyster Girl, The
R:jig 48
Z:P J Headford.
M:6/8
L:1/8
C:Trad arr. P J Headford
R:jig 48
K:G
B2c|ded B2G|A2F DEF|G2G BAB|
d2c ABc|ded Bdg|f2e c2e|d2B cBA|G3:|!
|:G2A|Bcd Bcd|e2c e2c|ABc ABc|
d2B d2B|ded Bdg|f2e c2e|d2B cBA|G3:|!
B2c|ded B2d|(g3g)fg|a2A A2B|
c3A2B|cdc A2c|(f3f2)e|e2d G2A|!
B3B2c|ded B2d|(g3g)fg|a2b a2g|
e3e3|fgf e2d|c'2a f2e|ded e2f|g3||

